rospo-icon-theme-classic-common/24x24/apps/cin.svg

<svg height="24" width="24" xmlns="http://www.w3.org/2000/svg"><rect height="20" opacity=".2" rx="1" transform="scale(1 -1)" width="20" x="2" y="-22.5"/><rect fill="#fecd38" height="20" rx="1" transform="scale(1 -1)" width="20" x="2" y="-22"/><path d="m3 3.4999996v2h2v-2zm4 0v2h2v-2zm4 0v2h2v-2zm4 0v2h2v-2zm4 0v2h2v-2zm-15 4v9.9999994h7v-9.9999994zm9 0v9.9999994h7v-9.9999994zm-10 11.9999994v2h2v-2zm4 0v2h2v-2zm4 0v2h2v-2zm4 0v2h2v-2zm4 0v2h2v-2z" opacity=".2"/><path d="m3 3v2h2v-2zm4 0v2h2v-2zm4 0v2h2v-2zm4 0v2h2v-2zm4 0v2h2v-2zm-15 4v10h7v-10zm9 0v10h7v-10zm-10 12v2h2v-2zm4 0v2h2v-2zm4 0v2h2v-2zm4 0v2h2v-2zm4 0v2h2v-2z" fill="#336894"/><path d="m3 2c-.554 0-1 .446-1 1v .5c0-.554.446-1 1-1h18c .554 0 1 .446 1 1v-.5c0-.554-.446-1-1-1z" fill="#fff" opacity=".2"/></svg>

<svg xmlns="http://www.w3.org/2000/svg" width="24" height="24" version="1">
 <rect width="20" height="20" x="2" y="-22.5" rx="1" ry="1" transform="scale(1,-1)" style="opacity:0.2"/>
 <rect style="fill:#fecd38" width="20" height="20" x="2" y="-22" rx="1" ry="1" transform="scale(1,-1)"/>
 <path d="m 3,3.4999996 0,2 2,0 0,-2 -2,0 z m 4,0 0,2 2,0 0,-2 -2,0 z m 4,0 0,2 2,0 0,-2 -2,0 z m 4,0 0,2 2,0 0,-2 -2,0 z m 4,0 0,2 2,0 0,-2 -2,0 z m -15,4 0,9.9999994 7,0 0,-9.9999994 -7,0 z m 9,0 0,9.9999994 7,0 0,-9.9999994 -7,0 z M 3,19.499999 l 0,2 2,0 0,-2 -2,0 z m 4,0 0,2 2,0 0,-2 -2,0 z m 4,0 0,2 2,0 0,-2 -2,0 z m 4,0 0,2 2,0 0,-2 -2,0 z m 4,0 0,2 2,0 0,-2 -2,0 z" style="opacity:0.2"/>
 <path style="fill:#336894" d="M 3 3 L 3 5 L 5 5 L 5 3 L 3 3 z M 7 3 L 7 5 L 9 5 L 9 3 L 7 3 z M 11 3 L 11 5 L 13 5 L 13 3 L 11 3 z M 15 3 L 15 5 L 17 5 L 17 3 L 15 3 z M 19 3 L 19 5 L 21 5 L 21 3 L 19 3 z M 4 7 L 4 17 L 11 17 L 11 7 L 4 7 z M 13 7 L 13 17 L 20 17 L 20 7 L 13 7 z M 3 19 L 3 21 L 5 21 L 5 19 L 3 19 z M 7 19 L 7 21 L 9 21 L 9 19 L 7 19 z M 11 19 L 11 21 L 13 21 L 13 19 L 11 19 z M 15 19 L 15 21 L 17 21 L 17 19 L 15 19 z M 19 19 L 19 21 L 21 21 L 21 19 L 19 19 z"/>
 <path style="fill:#ffffff;opacity:0.2" d="M 3 2 C 2.446 2 2 2.446 2 3 L 2 3.5 C 2 2.946 2.446 2.5 3 2.5 L 21 2.5 C 21.554 2.5 22 2.946 22 3.5 L 22 3 C 22 2.446 21.554 2 21 2 L 3 2 z"/>
</svg>
